icons/24x24_star_filled.svg

<svg xmlns="http://www.w3.org/2000/svg" width="24" height="24" viewBox="0 0 24 24">
  <path d="M11.0896809,2.55798836 C11.3980243,1.82137769 12.4382531,1.81184027 12.7600509,2.54267343 L15.4321068,8.61116451 L21.220796,9.45709774 C21.9651515,9.56587454 22.262748,10.4801378 21.725045,11.00623 L17.5255222,15.1150705 L18.5633698,20.7941927 C18.704715,21.5676365 17.8639028,22.1435643 17.1937757,21.7323182 L11.945481,18.5115257 L6.88233046,21.847518 C6.21840531,22.2849628 5.35246098,21.7193369 5.48620863,20.9355855 L6.47866962,15.1198375 L2.27427454,11.00623 C1.73657978,10.4801459 2.03415762,9.56589703 2.77849868,9.45710137 L8.5551675,8.61276196 L11.0896809,2.55798836 Z"/>
</svg>

<svg width="24" height="24" fill="none" xmlns="http://www.w3.org/2000/svg"><path d="M11.09 2.558c.308-.737 1.348-.746 1.67-.015l2.672 6.068 5.789.846a.909.909 0 0 1 .504 1.55l-4.2 4.108 1.038 5.68a.909.909 0 0 1-1.37.937l-5.248-3.22-5.063 3.335a.909.909 0 0 1-1.396-.911l.993-5.816-4.205-4.114a.909.909 0 0 1 .505-1.549l5.776-.844 2.535-6.055Z" fill="#000"/></svg>
